X:084
T:25th Reg't Quickstep. EHo.084
A:England; East Yorkshire
T:Ball's Hp,aka. EHo.084
M:2/4
L:1/8
Q:1/4=100
B:Edward Holmes MS, c1846, Beverley, Yorkshire.
N:The regiment was formed in 1689 by David Leslie, 3rd Earl of Leven & was known as
N:Leven's Regiment, becoming Semphill's Regiment of Foot under which name it fought
N:at the battle of Culloden. In 1751 it became the 25th Foot and was the county regiment
N:of Sussex from 1782 - 1805. Its recruiting area then moved to the Scottish Borders
N:and it was called the King's Own Borderers, becoming the King's Own Scottish
N:Borderers in 1887.
O:
Z:Village Music Project 2018, Jake Wade. Beverley, East Yorks
K:A
.A(c/A/) .B(d/B/) | .c(e/c/) Ac | .d(f/d/) .c(e/c/) | (3(B/d/B/) B/A/ A/G/F/E/ |
(3(A/G/A/) (c/A/) (3(B/^A/B/) (d/B/) | (3(c/^B/c/) {e/}d/{c/}B/ (3(d/c/d/) (f/d/) | d/c/B/A/ Eg | aecA :|
|: (a/g/)(a/f/) (f/e/)(d/c/) | (a/g/)(a/f/) (f/e/)(d/c/) | db/d/ ca/c/ | (3(B/d/c/) (B/A/) (A/G/F/E/) |
(3(A/G/A/) (3(c/B/A/) (3(B/^A/B/) (3(d/c/B/) | (3c/^B/c/ (3(e/d/c/) (3(d/c/d/) (3(f/e/d/) |\
(3d/c/B/ (3c/B/A/ E (3e/f/g/ | aecA :|

